X:0041
T:My Wifes a Wanton wee thing.
N:presumably bar 11 gives alternates, not a chord
M:6/8
L:1/8
3/8=120
I: :: ::
Z:Jack Campin * www.campin.me.uk * 2009
K:D
f/e/|d2A (B/c/d)A|d3 A2B|=cdc cGE   |=c3 E2
f/e/|d2A  B/c/dA |d3 A2G| FGF EDE   | D3 D2:|
A/B/|AdA  FDF    |A3 F3 | GAG E[GC]E| G3 B3
    |AdA  FDF    |A3 a2g| fdf ece   | d3 d2:|

